X:1
T:Title
%%score ( 1 2 ) { 3 | 4 }
L:1/8
Q:1/4=102
M:4/4
K:G
V:1 treble nm="Grand Piano, Soprano"
V:2 treble 
V:3 bass nm="Choir Pad, My Gift to Jesus"
V:4 bass 
V:1
 [B,D]2 [DB]2 [DB]>[CA] [B,G]>[CA] | [B,G]4 [CF]2 z2 | [CD]2 [CA]2 [CA]>[B,^G] [CA]>[DB] | %3
w: By~William~Gustin~Cooper * * * * *|||
 [B,G]6 z2 | [B,D]2 [DB]2 [DB]>[DA] [DG]>[DG] | G4 E2 z2 | [B,D]>[DG] [DF]>[DG] [GB]2 [FA]2 | %7
w: ||||
 G2 E>E D4 | [FA]2 [FA]2 [FA]>[GB] [Ac]>[Bd] | [GB]4 [Bd]2 z2 | [EG]2 [EG]2 [EG]>[GB] [FA]>[EG] | %11
w: ||||
 [DF]6 z2 | [FA]2 [FA]2 [FA]>[DF] [EG]>[FA] | [GB]6 z2 | [FA]2 [Fd]2 [Ge]>[GA] [GB]>[G^c] | %15
w: ||||
 d2- [Gd-]>[Gd-] d2 c2 | [GB]2 [GB]2 [DB]>[CA] [B,G]>[CA] | [B,G]4 [CF]2 z2 | %18
w: |||
 [CD]2 [CA]2 [CA]>[B,^G] [CA]>[DB] | [B,G]6 z2 | [B,D]2 [DB]2 [DB]>[DA] [DG]>[DG] | G4 z4 | %22
w: ||||
 [B,D]>[DG] [DF]>[DG] [GB]2 [FA]2 | G2 E>E D4 |] %24
w: ||
V:2
 x8 | x8 | x8 | x8 | x8 | B,6 z2 | x8 | x8 | x8 | x8 | x8 | x8 | x8 | x8 | x8 | F2 z2 F4 | x8 | %17
 x8 | x8 | x8 | x8 | B,4- [B,E]2 z2 | x8 | x8 |] %24
V:3
 G,2 G,2 G,>G, G,>G, | G,4 A,2 z2 | F,2 F,2 F,>F, F,>F, | G,6 z2 | G,2 G,2 G,>F, =F,>F, | %5
 E,4 G,2 z2 | G,>B, A,>B, D2[K:treble] C2 | B,2 C>C B,4 | D2 D2 D>D D>D | D6 z2 | ^C2 C2 C>C D>A, | %11
 A,6 z2 | D2 D2 D>D D>D | D6 z2 | D2 D2 ^C>C C>[K:bass]A, | A,2 B,>B, A,2 C2 | D2 D2 G,>G, G,>G, | %17
 G,4 A,2 z2 | F,2 F,2 F,>F, F,>F, | G,6 z2 | G,2 G,2 G,>F, =F,>F, | E,4 G,2 z2 | %22
 G,>B, A,>B, D2[K:treble] C2 | B,2 C>C B,4 |] %24
V:4
 G,,2 G,,2 G,,>G,, G,,>G,, | D,6 z2 | D,2 D,2 D,>D, D,>D, | G,,6 z2 | G,,2 G,,2 G,,>A,, B,,>B,, | %5
 C,6 z2 | D,>D, D,>D, z2 D,2 | G,8 | D,2 D,2 D,>D, D,>D, | G,6 z2 | A,2 A,2 A,>A, A,,>A,, | %11
 D,6 z2 | D,2 D,2 D,>D, D,>D, | G,6 z2 | A,2 A,2 A,>A, A,2 | D,8 | G,2 G,2 z4 | D,6 z2 | %18
 D,2 D,2 D,>D, D,>D, | z8 | G,,2 G,,2 G,,>A,, B,,>B,, | C,6 z2 | D,>D, D,>D, z2 D,2 | G,8 |] %24

